X:1
T: Lancaster Hornpipe
S: David Young's Collection of the newest Country Dances Performed in Scotland, 1740
Z: Pete Stewart
S: "Pete Stewart" <pete:wintonpottery.co.uk> tradtunes 2013-4-26
M: 3/2
L: 1/4
K: D
d>B A/B/A/G/TF2|Ee2B d/c/B/A/|B/c/d/A/ B/A/G/F/TE2|Dd2F"tr"ED:|]
dfceTB2|Be2Bd/c/B/A/|dfceBe|AB/c/dFTED:|]
